epam-assets/icon-sources/18/content-sort_desc.svg

<svg xmlns="http://www.w3.org/2000/svg" width="18" height="18" fill="none" viewBox="0 0 18 18">
  <path fill="#6C6F80" fill-rule="evenodd" d="M2.25 4.5h4.5V6h-4.5V4.5Zm0 9V12h13.5v1.5H2.25Zm0-5.25h9v1.5h-9v-1.5Z" clip-rule="evenodd"/>
</svg>

<svg width="18" height="18" viewBox="0 0 18 18" fill="none" xmlns="http://www.w3.org/2000/svg">
<g id="18/content-sort_desc">
<path id="icon" fill-rule="evenodd" clip-rule="evenodd" d="M2.25 4.5H6.75V6H2.25V4.5ZM2.25 13.5V12H15.75V13.5H2.25ZM2.25 8.25H11.25V9.75H2.25V8.25Z" fill="#6C6F80"/>
</g>
</svg>
